assets/icons/search.svg

<svg class="header__center-part__input-wrapper__search-icon" width="16px" height="16px"
    viewBox="0 0 16 16" version="1.1" xmlns="http://www.w3.org/2000/svg"
    xmlns:xlink="http://www.w3.org/1999/xlink">
    <g id="Page-1" stroke="none" stroke-width="1" fill="none" fill-rule="evenodd">
        <g id="mobile-Index" transform="translate(-311.000000, -59.000000)" fill="#262626"
            fill-rule="nonzero">
            <g id="Group-5" transform="translate(16.000000, 52.000000)">
                <g id="Group" transform="translate(295.000000, 7.000000)">
                    <path
                        d="M15.3263158,14.1473684 C15.3263158,14.1473684 15.1578947,14.5684211 14.9052632,14.8210526 C14.5684211,15.1578947 14.1473684,15.3263158 14.1473684,15.3263158 C14.1473684,15.3263158 13.3894737,15.9157895 11.7894737,13.9789474 C10.8631579,12.8 9.93684211,11.6210526 9.17894737,10.6947368 C8.33684211,11.3684211 7.15789474,11.7894737 5.89473684,11.7894737 C2.61052632,11.7894737 0,9.17894737 0,5.89473684 C0,2.61052632 2.61052632,0 5.89473684,0 C9.17894737,0 11.7894737,2.61052632 11.7894737,5.89473684 C11.7894737,7.15789474 11.3684211,8.33684211 10.6947368,9.26315789 C11.6210526,9.93684211 12.8,10.9473684 14.0631579,11.8736842 C16,13.3052632 15.3263158,14.1473684 15.3263158,14.1473684 Z M5.89473684,1.68421053 C3.53684211,1.68421053 1.68421053,3.53684211 1.68421053,5.89473684 C1.68421053,8.25263158 3.53684211,10.1052632 5.89473684,10.1052632 C8.25263158,10.1052632 10.1052632,8.25263158 10.1052632,5.89473684 C10.1052632,3.53684211 8.25263158,1.68421053 5.89473684,1.68421053 Z"
                        id="Shape"></path>
                </g>
            </g>
        </g>
    </g>
</svg>

<svg class="header__center-part__input-wrapper__search-icon" width="16" height="16" xmlns="http://www.w3.org/2000/svg"><path d="M15.326 14.147s-.168.421-.42.674c-.338.337-.759.505-.759.505s-.758.59-2.358-1.347c-.926-1.179-1.852-2.358-2.61-3.284-.842.673-2.021 1.094-3.284 1.094A5.858 5.858 0 010 5.895 5.858 5.858 0 015.895 0a5.858 5.858 0 015.894 5.895 5.75 5.75 0 01-1.094 3.368c.926.674 2.105 1.684 3.368 2.61 1.937 1.432 1.263 2.274 1.263 2.274zM5.895 1.684a4.17 4.17 0 00-4.21 4.21 4.17 4.17 0 004.21 4.211 4.17 4.17 0 004.21-4.21 4.17 4.17 0 00-4.21-4.21z" fill="#262626" fill-rule="nonzero"/></svg>
